X:1
T: The Royal Captives
C:
R:Jig
Q:180
K:G
M:6/8
L:1/16
|:g4G2 G2B2c2|d2e2d2 d2c2B2|e4A2 A2B2c2|B2A2G2 F2E2D2|
g4d2 b4d2|a4d2 f4d2|e2g2f2 e2d2^c2|d6d6:|
|:g4d2 d2e2=f2|e2g2=f2 e2d2c2|a4e2 e2f2g2|f2a2g2 f2e2d2|
B2f2g2 b2^d2e2|g2B2c2 A2c2e2|d2c2B2 A2G2F2|G6 G6:|
